X: 14744
T: Gan Ainm
R: reel
M: 4/4
K: Edorian
B2ef e2dB|AdFE EDB,D|D2 D/D/D ADBF|AFDE FE~E2|
Beef eedB|AdFE EDB,D|D2 D/D/D ADBF|AFDE FE~E2||
|:Beef edBA|FABc d2 A/B/c|dffe ~d2df|edBc d2BA|
B2 e/e/e ezdB|AdFE EDB,D|D2 D/D/D ADBF|AFDE FE~E2:|

